X: 3
T: The Shamrock
R: slip jig
M: 9/8
L: 1/8
K: Dmaj
|:D2 D FED FGA|D2 D FED Bcd|D2 D FED FGA|Bcd A2 G F2 D:|
|:FGA AFA A3|FGA AFD Bcd|FGA AF/G/A AFD|Bcd A2 G FED:|

